icon/pk/nested-arrows.svg

<svg width="48" height="48" fill="none" xmlns="http://www.w3.org/2000/svg"><path d="M30 17V4H4v26h13" stroke="#000" stroke-width="4" stroke-linecap="round" stroke-linejoin="round"/><path d="M43 43V17H17v26h26Z" fill="#2F88FF" stroke="#000" stroke-width="4" stroke-linecap="round" stroke-linejoin="round"/><path d="M33 30H17m16 0-5-5 5 5Zm0 0-5 5 5-5ZM17 17v26" stroke="#000" stroke-width="4" stroke-linecap="round" stroke-linejoin="round"/></svg>

<svg viewBox="0 0 48 48" fill="none" xmlns="http://www.w3.org/2000/svg" height="1em" width="1em">
  <path d="M30 17V4H4V30H17" stroke="black" stroke-width="4" stroke-linecap="round" stroke-linejoin="round"/>
  <path d="M43 43V17H17V43H43Z" fill="#2F88FF" stroke="black" stroke-width="4" stroke-linecap="round" stroke-linejoin="round"/>
  <path d="M33 30H17M33 30L28 25L33 30ZM33 30L28 35L33 30Z" stroke="black" stroke-width="4" stroke-linecap="round" stroke-linejoin="round"/>
  <path d="M17 17V43" stroke="black" stroke-width="4" stroke-linecap="round" stroke-linejoin="round"/>
</svg>
